gama.ui.shared/icons_svg/dark/agents/agent.actions.svg

<svg height="25" viewBox="-814.997 -3602.725 25 25" width="25" xmlns="http://www.w3.org/2000/svg"><g fill="none"><circle cx="-802.497" cy="-3590.225" fill="#666" r="12"/><circle cx="-802.497" cy="-3590.225" r="12" stroke="#fff" stroke-linecap="round" stroke-linejoin="round" stroke-width=".25"/><path d="m-796.7766-3585.5933-1.8076-1.8077c-.1644-.1643-.1644-.431 0-.5953.16445-.1644.431-.1644.5955 0l2.5263 2.5263c.1644.1644.1644.431 0 .5955l-2.5263 2.5265c-.1645.1642-.43105.1642-.5955 0-.1644-.1646-.1644-.4312 0-.5957l1.8076-1.8073h-4.0362c-.2325 0-.421-.1887-.421-.4213 0-.2327.1885-.421.421-.421zm-4.4214-4.5767c-.5252.2353-1.1073.366-1.72.366-.6115 0-1.1925-.13-1.7169-.3646l-3.4374 1.5626c-.4509.205-.7405.6545-.7405 1.15v.5995c0 .6975.5656 1.2632 1.2632 1.2632h4.2105c.2326 0 .4211.1883.4211.421 0 .2326-.1885.4213-.4211.4213h-4.2105c-1.1627 0-2.1053-.9428-2.1053-2.1055v-.5995c0-.8258.4826-1.575 1.2341-1.9167l2.9109-1.3233c-.9853-.7705-1.6187-1.9705-1.6187-3.3184 0-2.3254 1.8852-4.2106 4.2106-4.2106s4.2105 1.8852 4.2105 4.2106c0 1.3414-.6273 2.5364-1.6045 3.3074l2.1911.937c.2138.0915.313.339.2216.553-.0915.2136-.3389.313-.5527.2214zm-1.72-.476c1.8603 0 3.3684-1.508 3.3684-3.3684 0-1.8603-1.5081-3.3684-3.3684-3.3684-1.8604 0-3.36845 1.5081-3.36845 3.3684 0 1.8604 1.50805 3.3684 3.36845 3.3684z" fill="#8eed62"/></g></svg>

<?xml version="1.0" encoding="UTF-8" standalone="no"?>
<!DOCTYPE svg PUBLIC "-//W3C//DTD SVG 1.1//EN" "http://www.w3.org/Graphics/SVG/1.1/DTD/svg11.dtd">
<svg xmlns="http://www.w3.org/2000/svg" xmlns:xl="http://www.w3.org/1999/xlink" version="1.1" xmlns:dc="http://purl.org/dc/elements/1.1/" viewBox="-814.997 -3602.725 24.999996 25" width="24.999996" height="25">
  <defs/>
  <g id="SOURCES" stroke-opacity="1" fill="none" stroke="none" fill-opacity="1" stroke-dasharray="none">
    <title>SOURCES</title>
    <g id="SOURCES_Dark">
      <title>Dark</title>
      <g id="Graphic_11551">
        <circle cx="-802.497" cy="-3590.225" r="12.000018268838" fill="#666"/>
        <circle cx="-802.497" cy="-3590.225" r="12.000018268838" stroke="white" stroke-linecap="round" stroke-linejoin="round" stroke-width=".25"/>
      </g>
      <g id="Graphic_11550">
        <path d="M -796.7766 -3585.5933 L -798.5842 -3587.401 C -798.7486 -3587.5653 -798.7486 -3587.832 -798.5842 -3587.9963 C -798.41975 -3588.1607 -798.1532 -3588.1607 -797.9887 -3587.9963 L -795.4624 -3585.47 C -795.298 -3585.3056 -795.298 -3585.039 -795.4624 -3584.8745 L -797.9887 -3582.348 C -798.1532 -3582.1838 -798.41975 -3582.1838 -798.5842 -3582.348 C -798.7486 -3582.5126 -798.7486 -3582.7792 -798.5842 -3582.9437 L -796.7766 -3584.751 L -800.8128 -3584.751 C -801.0453 -3584.751 -801.2338 -3584.9397 -801.2338 -3585.1723 C -801.2338 -3585.405 -801.0453 -3585.5933 -800.8128 -3585.5933 L -796.7766 -3585.5933 Z M -801.198 -3590.17 C -801.7232 -3589.9347 -802.3053 -3589.804 -802.918 -3589.804 C -803.5295 -3589.804 -804.1105 -3589.934 -804.6349 -3590.1686 L -808.0723 -3588.606 C -808.5232 -3588.401 -808.8128 -3587.9515 -808.8128 -3587.456 L -808.8128 -3586.8565 C -808.8128 -3586.159 -808.2472 -3585.5933 -807.5496 -3585.5933 L -803.3391 -3585.5933 C -803.1065 -3585.5933 -802.918 -3585.405 -802.918 -3585.1723 C -802.918 -3584.9397 -803.1065 -3584.751 -803.3391 -3584.751 L -807.5496 -3584.751 C -808.7123 -3584.751 -809.6549 -3585.6938 -809.6549 -3586.8565 L -809.6549 -3587.456 C -809.6549 -3588.2818 -809.1723 -3589.031 -808.4208 -3589.3727 L -805.5099 -3590.696 C -806.4952 -3591.4665 -807.1286 -3592.6665 -807.1286 -3594.0144 C -807.1286 -3596.3398 -805.2434 -3598.225 -802.918 -3598.225 C -800.5926 -3598.225 -798.7075 -3596.3398 -798.7075 -3594.0144 C -798.7075 -3592.673 -799.3348 -3591.478 -800.312 -3590.707 L -798.1209 -3589.77 C -797.9071 -3589.6785 -797.8079 -3589.431 -797.8993 -3589.217 C -797.9908 -3589.0034 -798.2382 -3588.904 -798.452 -3588.9956 L -801.198 -3590.17 Z M -802.918 -3590.646 C -801.0577 -3590.646 -799.5496 -3592.154 -799.5496 -3594.0144 C -799.5496 -3595.8747 -801.0577 -3597.3828 -802.918 -3597.3828 C -804.7784 -3597.3828 -806.28645 -3595.8747 -806.28645 -3594.0144 C -806.28645 -3592.154 -804.7784 -3590.646 -802.918 -3590.646 Z" fill="#8eed62"/>
      </g>
    </g>
  </g>
</svg>
